icons/notebook.svg

<svg xmlns="http://www.w3.org/2000/svg" viewBox="0 0 24 24" fill="currentColor">
  <path d="M5.75 6c0-1.28579.96421-2.25 2.25-2.25h8c1.2858 0 2.25.96421 2.25 2.25v12c0 1.2858-.9642 2.25-2.25 2.25H8c-1.28579 0-2.25-.9642-2.25-2.25V6ZM8 2.25C5.88579 2.25 4.25 3.88579 4.25 6v12c0 2.1142 1.63579 3.75 3.75 3.75h8c2.1142 0 3.75-1.6358 3.75-3.75V6c0-2.11421-1.6358-3.75-3.75-3.75H8ZM8.75 7c0-.12956.03991-.17925.05533-.19467C8.82075 6.78991 8.87044 6.75 9 6.75h6c.1296 0 .1793.03991.1947.05533.0154.01542.0553.06511.0553.19467v3c0 .0061-.0106.0749-.0928.1572-.0823.0822-.1511.0928-.1572.0928H9c-.12956 0-.17925-.0399-.19467-.0553C8.78991 10.1793 8.75 10.1296 8.75 10V7ZM9 5.25c-.47044 0-.92075.16009-1.25533.49467C7.41009 6.07925 7.25 6.52956 7.25 7v3c0 .4704.16009.9207.49467 1.2553.33458.3346.78489.4947 1.25533.4947h6c.4939 0 .9251-.2394 1.2178-.5322.2928-.2927.5322-.7239.5322-1.2178V7c0-.47044-.1601-.92075-.4947-1.25533C15.9207 5.41009 15.4704 5.25 15 5.25H9Z"/>
</svg>

<svg width="24" height="24" viewBox="0 0 24 24" fill="none" xmlns="http://www.w3.org/2000/svg">
<path fill-rule="evenodd" clip-rule="evenodd" d="M5.75 6C5.75 4.71421 6.71421 3.75 8 3.75H16C17.2858 3.75 18.25 4.71421 18.25 6V18C18.25 19.2858 17.2858 20.25 16 20.25H8C6.71421 20.25 5.75 19.2858 5.75 18V6ZM8 2.25C5.88579 2.25 4.25 3.88579 4.25 6V18C4.25 20.1142 5.88579 21.75 8 21.75H16C18.1142 21.75 19.75 20.1142 19.75 18V6C19.75 3.88579 18.1142 2.25 16 2.25H8ZM8.75 7C8.75 6.87044 8.78991 6.82075 8.80533 6.80533C8.82075 6.78991 8.87044 6.75 9 6.75H15C15.1296 6.75 15.1793 6.78991 15.1947 6.80533C15.2101 6.82075 15.25 6.87044 15.25 7V10C15.25 10.0061 15.2394 10.0749 15.1572 10.1572C15.0749 10.2394 15.0061 10.25 15 10.25H9C8.87044 10.25 8.82075 10.2101 8.80533 10.1947C8.78991 10.1793 8.75 10.1296 8.75 10V7ZM9 5.25C8.52956 5.25 8.07925 5.41009 7.74467 5.74467C7.41009 6.07925 7.25 6.52956 7.25 7V10C7.25 10.4704 7.41009 10.9207 7.74467 11.2553C8.07925 11.5899 8.52956 11.75 9 11.75H15C15.4939 11.75 15.9251 11.5106 16.2178 11.2178C16.5106 10.9251 16.75 10.4939 16.75 10V7C16.75 6.52956 16.5899 6.07925 16.2553 5.74467C15.9207 5.41009 15.4704 5.25 15 5.25H9Z" fill="black"/>
</svg>
